X:1
T:Title
%%score { ( 1 3 ) | 2 }
L:1/8
M:9/8
K:G
V:1 treble nm="Grand Piano"
V:3 treble 
V:2 bass 
V:1
 z3 z3[Q:1/4=105] [B,D][CE][CF] | [B,G]3- [B,G]2 [B,G] AGA | B6 d3 | d3- dBG GAB |[M:3/4] [FA]6 | %5
[M:3/8] DEF |[M:9/8] [B,G]3- [B,G]2 [B,G] AGA | B6 [Ge]3 | [Gd]3- [Gd]BG AEF |[M:3/4] [B,G]6 | %10
[M:3/8] AAA |[M:9/8] _B3 G3 FGA | D6 dd[Ad] | [Gd]3 [EGB]3 [EG^c]3 | %14
 [DFd]6[K:bass] [F,D][G,^CE][K:treble][A,=CF] | [G,B,G]3- [G,B,G]2 [B,DG] [B,G][CFA][=FB] | %16
 [Ec]6 [Ge]3 | .[Gd]6 z3 |[M:3/4] [B,G]6 |] %19
V:2
 z3 z3 [G,,G,][G,,G,][G,,D,] | [G,,D,]3- [G,,D,]2 [G,,G,] [D,F,D][D,E,D][D,F,D] | [G,D]6 [G,B,G]3 | %3
 [G,B,G]3- [G,B,G][G,DG][G,B,D] [B,D][A,DF][G,DG] |[M:3/4][K:bass] [D,D]6 | %5
[M:3/8] [D,F,][D,G,^C][D,A,=C] |[M:9/8] [G,,G,]3- [G,,G,]2 [G,,G,] [D,F,D][D,E,D][D,F,D] | %7
 [G,D]6 [C,C]3 | [D,B,]3- [D,B,][D,G,D][D,G,B,] [D,F,C][D,G,C][D,A,C] |[M:3/4] [G,,G,]6 | %10
[M:3/8] [D,F,D][D,F,D][D,F,D] |[M:9/8] [G,D]3 [G,_B,=B,]3 F,G,A, | D,6 [F,A,D][F,A,F][F,A,] | %13
 [G,B,]3 G,3 A,3 | D,6 D,D,D, | G,,3- G,,2 G,, G,G,G, | [C,G,]6 [C,C]3 | %17
 [D,B,]D,D, D,[D,G,D][D,G,B,] [D,F,C][D,G,C][D,A,C] |[M:3/4] [G,,G,]6 |] %19
V:3
 x9 | x9 | x9 | x9 |[M:3/4] x6 |[M:3/8] x3 |[M:9/8] x9 | x9 | x9 |[M:3/4] x6 |[M:3/8] x3 | %11
[M:9/8] x9 | x9 | x9 | x6[K:bass] x2[K:treble] x | x9 | x9 | z B,B, B,BG AEF |[M:3/4] x6 |] %19

